src/assets/spades_3.svg

<?xml version="1.0" encoding="UTF-8"?>
<svg xmlns="http://www.w3.org/2000/svg" xmlns:xlink="http://www.w3.org/1999/xlink" width="99px" height="140px" viewBox="0 0 99 140" version="1.1">
<g id="surface1">
<path style="fill-rule:nonzero;fill:rgb(100%,100%,100%);fill-opacity:1;stroke-width:0.755906;stroke-linecap:butt;stroke-linejoin:miter;stroke:rgb(50.196078%,50.196078%,50.196078%);stroke-opacity:1;stroke-miterlimit:4;" d="M 9.297585 719.743103 L 224.702415 719.743103 C 229.632812 719.743103 233.621449 723.747651 233.621449 728.681329 L 233.621449 1043.042991 C 233.621449 1047.976669 229.632812 1051.981217 224.702415 1051.981217 L 9.297585 1051.981217 C 4.367188 1051.981217 0.378551 1047.976669 0.378551 1043.042991 L 0.378551 728.681329 C 0.378551 723.747651 4.367188 719.743103 9.297585 719.743103 Z M 9.297585 719.743103 " transform="matrix(0.423077,0,0,0.42042,0,-302.434542)"/>
<path style=" stroke:none;fill-rule:nonzero;fill:rgb(0%,0%,0%);fill-opacity:1;" d="M 5.457031 25.789062 C 5.457031 25.554688 5.445312 25.386719 5.445312 25.152344 C 5.929688 25.152344 6.457031 25.152344 6.945312 25.152344 C 6.945312 24.597656 6.945312 24.558594 6.945312 24 C 5.996094 24.03125 4.96875 24.101562 4.078125 23.710938 C 3.390625 23.335938 3.199219 22.464844 3.339844 21.746094 C 3.457031 20.933594 3.910156 20.214844 4.503906 19.660156 C 5.273438 18.84375 6.253906 18.289062 7.277344 17.847656 C 8.324219 18.296875 9.328125 18.867188 10.105469 19.707031 C 10.808594 20.363281 11.277344 21.289062 11.261719 22.261719 C 11.277344 22.960938 10.839844 23.699219 10.121094 23.851562 C 9.316406 24.074219 8.5 24.035156 7.671875 24 C 7.671875 24.558594 7.671875 24.597656 7.671875 25.152344 C 8.160156 25.152344 8.605469 25.152344 9.09375 25.152344 C 9.09375 25.386719 9.105469 25.554688 9.105469 25.789062 C 7.992188 25.78125 6.660156 25.78125 5.457031 25.789062 Z M 5.457031 25.789062 "/>
<path style=" stroke:none;fill-rule:nonzero;fill:rgb(0%,0%,0%);fill-opacity:1;" d="M 89.898438 114.210938 C 89.898438 114.445312 89.886719 114.613281 89.886719 114.847656 C 90.371094 114.847656 90.898438 114.847656 91.386719 114.847656 C 91.386719 115.402344 91.386719 115.441406 91.386719 116 C 90.4375 115.96875 89.410156 115.898438 88.519531 116.289062 C 87.832031 116.664062 87.640625 117.535156 87.78125 118.253906 C 87.898438 119.066406 88.351562 119.785156 88.945312 120.339844 C 89.714844 121.15625 90.695312 121.710938 91.71875 122.152344 C 92.765625 121.703125 93.769531 121.132812 94.546875 120.292969 C 95.25 119.636719 95.71875 118.710938 95.703125 117.738281 C 95.71875 117.039062 95.28125 116.300781 94.5625 116.148438 C 93.757812 115.925781 92.941406 115.964844 92.113281 116 C 92.113281 115.441406 92.113281 115.402344 92.113281 114.847656 C 92.601562 114.847656 93.046875 114.847656 93.535156 114.847656 C 93.535156 114.613281 93.546875 114.445312 93.546875 114.210938 C 92.433594 114.21875 91.101562 114.21875 89.898438 114.210938 Z M 89.898438 114.210938 "/>
<path style=" stroke:none;fill-rule:nonzero;fill:rgb(0%,0%,0%);fill-opacity:1;" d="M 44.035156 39.820312 C 44.035156 39.117188 43.996094 38.613281 43.996094 37.910156 C 45.453125 37.910156 47.035156 37.910156 48.492188 37.910156 C 48.492188 36.242188 48.492188 36.125 48.492188 34.457031 C 45.644531 34.550781 42.5625 34.757812 39.894531 33.589844 C 37.832031 32.464844 37.261719 29.84375 37.679688 27.691406 C 38.035156 25.257812 39.394531 23.101562 41.167969 21.4375 C 43.476562 18.984375 46.421875 17.328125 49.496094 15.992188 C 52.632812 17.347656 55.644531 19.058594 57.980469 21.578125 C 60.089844 23.546875 61.492188 26.324219 61.449219 29.234375 C 61.492188 31.335938 60.183594 33.554688 58.023438 34.015625 C 55.609375 34.679688 53.164062 34.5625 50.683594 34.457031 C 50.683594 36.125 50.683594 36.242188 50.683594 37.910156 C 52.140625 37.910156 53.480469 37.910156 54.9375 37.910156 C 54.9375 38.613281 54.976562 39.117188 54.976562 39.820312 C 51.636719 39.796875 47.640625 39.796875 44.035156 39.820312 Z M 44.035156 39.820312 "/>
<path style=" stroke:none;fill-rule:nonzero;fill:rgb(0%,0%,0%);fill-opacity:1;" d="M 44.035156 81.914062 C 44.035156 81.210938 43.996094 80.707031 43.996094 80.003906 C 45.453125 80.003906 47.035156 80.003906 48.492188 80.003906 C 48.492188 78.335938 48.492188 78.21875 48.492188 76.550781 C 45.644531 76.644531 42.5625 76.851562 39.894531 75.683594 C 37.832031 74.558594 37.261719 71.9375 37.679688 69.785156 C 38.035156 67.351562 39.394531 65.191406 41.167969 63.53125 C 43.476562 61.078125 46.421875 59.417969 49.496094 58.085938 C 52.632812 59.441406 55.644531 61.152344 57.980469 63.671875 C 60.089844 65.640625 61.492188 68.417969 61.449219 71.328125 C 61.492188 73.429688 60.183594 75.648438 58.023438 76.105469 C 55.609375 76.773438 53.164062 76.65625 50.683594 76.550781 C 50.683594 78.21875 50.683594 78.335938 50.683594 80.003906 C 52.140625 80.003906 53.480469 80.003906 54.9375 80.003906 C 54.9375 80.707031 54.976562 81.210938 54.976562 81.914062 C 51.636719 81.890625 47.640625 81.890625 44.035156 81.914062 Z M 44.035156 81.914062 "/>
<path style=" stroke:none;fill-rule:nonzero;fill:rgb(0%,0%,0%);fill-opacity:1;" d="M 44.035156 100.179688 C 44.035156 100.882812 43.996094 101.386719 43.996094 102.089844 C 45.453125 102.089844 47.035156 102.089844 48.492188 102.089844 C 48.492188 103.757812 48.492188 103.875 48.492188 105.542969 C 45.644531 105.449219 42.5625 105.242188 39.894531 106.410156 C 37.832031 107.535156 37.261719 110.15625 37.679688 112.308594 C 38.035156 114.742188 39.394531 116.898438 41.167969 118.5625 C 43.476562 121.015625 46.421875 122.671875 49.496094 124.007812 C 52.632812 122.652344 55.644531 120.941406 57.980469 118.421875 C 60.089844 116.453125 61.492188 113.675781 61.449219 110.765625 C 61.492188 108.664062 60.183594 106.445312 58.023438 105.984375 C 55.609375 105.320312 53.164062 105.4375 50.683594 105.542969 C 50.683594 103.875 50.683594 103.757812 50.683594 102.089844 C 52.140625 102.089844 53.480469 102.089844 54.9375 102.089844 C 54.9375 101.386719 54.976562 100.882812 54.976562 100.179688 C 51.636719 100.203125 47.640625 100.203125 44.035156 100.179688 Z M 44.035156 100.179688 "/>
<path style=" stroke:none;fill-rule:nonzero;fill:rgb(0%,0%,0%);fill-opacity:1;" d="M 11.261719 11.835938 C 11.261719 12.941406 10.867188 13.792969 10.070312 14.386719 C 9.355469 14.929688 8.417969 15.199219 7.257812 15.199219 C 4.617188 15.199219 3.296875 13.980469 3.296875 11.542969 C 3.296875 11.429688 3.316406 11.324219 3.355469 11.21875 C 3.4375 11.171875 3.53125 11.148438 3.636719 11.148438 L 4.71875 11.148438 C 4.824219 11.148438 4.921875 11.171875 5.011719 11.21875 C 5.039062 11.296875 5.0625 11.386719 5.078125 11.488281 C 5.171875 12.160156 5.367188 12.644531 5.660156 12.949219 C 5.988281 13.285156 6.488281 13.453125 7.167969 13.453125 C 7.722656 13.453125 8.175781 13.308594 8.523438 13.015625 C 8.890625 12.699219 9.074219 12.277344 9.074219 11.746094 C 9.074219 10.621094 8.441406 9.960938 7.183594 9.765625 C 7.027344 9.746094 6.910156 9.710938 6.832031 9.667969 C 6.789062 9.582031 6.765625 9.144531 6.765625 8.351562 C 6.765625 8.25 6.792969 8.152344 6.84375 8.0625 C 7.257812 7.941406 7.675781 7.820312 8.089844 7.695312 C 8.527344 7.5 8.75 7.089844 8.75 6.46875 C 8.75 5.527344 8.183594 5.054688 7.050781 5.054688 C 6.527344 5.054688 6.121094 5.179688 5.828125 5.429688 C 5.671875 5.566406 5.511719 5.796875 5.34375 6.121094 C 5.222656 6.367188 5.101562 6.492188 4.976562 6.492188 L 3.902344 6.492188 C 3.632812 6.492188 3.496094 6.375 3.496094 6.136719 C 3.496094 5.230469 3.859375 4.515625 4.585938 3.992188 C 5.242188 3.519531 6.046875 3.285156 7 3.285156 C 8.097656 3.285156 8.996094 3.511719 9.6875 3.960938 C 10.503906 4.484375 10.914062 5.257812 10.914062 6.28125 C 10.914062 7.515625 10.289062 8.355469 9.039062 8.800781 C 10.523438 9.410156 11.261719 10.425781 11.261719 11.835938 Z M 11.261719 11.835938 "/>
<path style=" stroke:none;fill-rule:nonzero;fill:rgb(0%,0%,0%);fill-opacity:1;" d="M 87.738281 128.164062 C 87.738281 127.058594 88.132812 126.207031 88.929688 125.613281 C 89.644531 125.070312 90.582031 124.800781 91.742188 124.800781 C 94.382812 124.800781 95.703125 126.019531 95.703125 128.457031 C 95.703125 128.570312 95.683594 128.675781 95.644531 128.78125 C 95.5625 128.828125 95.46875 128.851562 95.363281 128.851562 L 94.28125 128.851562 C 94.175781 128.851562 94.078125 128.828125 93.988281 128.78125 C 93.960938 128.703125 93.9375 128.613281 93.921875 128.511719 C 93.828125 127.839844 93.632812 127.355469 93.339844 127.050781 C 93.011719 126.714844 92.511719 126.546875 91.832031 126.546875 C 91.277344 126.546875 90.824219 126.691406 90.476562 126.984375 C 90.109375 127.300781 89.925781 127.722656 89.925781 128.253906 C 89.925781 129.378906 90.558594 130.039062 91.816406 130.234375 C 91.972656 130.253906 92.089844 130.289062 92.167969 130.332031 C 92.210938 130.417969 92.234375 130.855469 92.234375 131.648438 C 92.234375 131.75 92.207031 131.847656 92.15625 131.9375 C 91.742188 132.058594 91.324219 132.179688 90.910156 132.304688 C 90.472656 132.5 90.25 132.910156 90.25 133.53125 C 90.25 134.472656 90.816406 134.945312 91.949219 134.945312 C 92.472656 134.945312 92.878906 134.820312 93.171875 134.570312 C 93.328125 134.433594 93.488281 134.203125 93.65625 133.878906 C 93.777344 133.632812 93.898438 133.507812 94.023438 133.507812 L 95.097656 133.507812 C 95.367188 133.507812 95.503906 133.625 95.503906 133.863281 C 95.503906 134.769531 95.140625 135.484375 94.414062 136.007812 C 93.757812 136.480469 92.953125 136.714844 92 136.714844 C 90.902344 136.714844 90.003906 136.488281 89.3125 136.039062 C 88.496094 135.515625 88.085938 134.742188 88.085938 133.71875 C 88.085938 132.484375 88.710938 131.644531 89.960938 131.199219 C 88.476562 130.589844 87.738281 129.574219 87.738281 128.164062 Z M 87.738281 128.164062 "/>
</g>
</svg>

<svg xmlns="http://www.w3.org/2000/svg" width="99" height="140"><path d="M9.298 719.743h215.404c4.93 0 8.92 4.005 8.92 8.938v314.362c0 4.934-3.99 8.938-8.92 8.938H9.298c-4.93 0-8.92-4.004-8.92-8.938V728.681c0-4.933 3.99-8.938 8.92-8.938Zm0 0" style="fill-rule:nonzero;fill:#fff;fill-opacity:1;stroke-width:.755906;stroke-linecap:butt;stroke-linejoin:miter;stroke:gray;stroke-opacity:1;stroke-miterlimit:4" transform="matrix(.42308 0 0 .42042 0 -302.435)"/><path d="M5.457 25.79c0-.235-.012-.403-.012-.638h1.5V24c-.949.031-1.976.102-2.867-.29-.687-.374-.879-1.245-.738-1.964.117-.812.57-1.531 1.164-2.086.77-.816 1.75-1.37 2.773-1.812 1.047.449 2.051 1.02 2.828 1.859.704.656 1.172 1.582 1.157 2.555.015.699-.422 1.437-1.14 1.59-.806.222-1.622.183-2.45.148v1.152h1.422c0 .235.011.403.011.637a283.894 283.894 0 0 0-3.648 0ZM89.898 114.21c0 .235-.011.403-.011.638h1.5V116c-.95-.031-1.977-.102-2.867.29-.688.374-.88 1.245-.739 1.964.117.812.57 1.531 1.164 2.086.77.816 1.75 1.37 2.774 1.812 1.047-.449 2.05-1.02 2.828-1.859.703-.656 1.172-1.582 1.156-2.555.016-.699-.422-1.437-1.14-1.59-.805-.222-1.622-.183-2.45-.148v-1.152h1.422c0-.235.012-.403.012-.637-1.113.008-2.445.008-3.649 0ZM44.035 39.82c0-.703-.039-1.207-.039-1.91h4.496v-3.453c-2.847.094-5.93.3-8.597-.867-2.063-1.125-2.633-3.746-2.215-5.899.355-2.433 1.715-4.59 3.488-6.253 2.309-2.454 5.254-4.11 8.328-5.446 3.137 1.356 6.149 3.067 8.484 5.586 2.11 1.969 3.512 4.746 3.47 7.656.042 2.102-1.266 4.32-3.427 4.782-2.414.664-4.859.547-7.34.441v3.453h4.255c0 .703.039 1.207.039 1.91-3.34-.023-7.336-.023-10.942 0ZM44.035 81.914c0-.703-.039-1.207-.039-1.91h4.496V76.55c-2.847.094-5.93.3-8.597-.867-2.063-1.125-2.633-3.746-2.215-5.899.355-2.433 1.715-4.594 3.488-6.254 2.309-2.453 5.254-4.113 8.328-5.445 3.137 1.355 6.149 3.066 8.484 5.586 2.11 1.969 3.512 4.746 3.47 7.656.042 2.102-1.266 4.32-3.427 4.777-2.414.668-4.859.551-7.34.446v3.453h4.255c0 .703.039 1.207.039 1.91-3.34-.023-7.336-.023-10.942 0ZM44.035 100.18c0 .703-.039 1.207-.039 1.91h4.496v3.453c-2.847-.094-5.93-.3-8.597.867-2.063 1.125-2.633 3.746-2.215 5.899.355 2.433 1.715 4.59 3.488 6.254 2.309 2.453 5.254 4.109 8.328 5.445 3.137-1.356 6.149-3.067 8.484-5.586 2.11-1.969 3.512-4.746 3.47-7.656.042-2.102-1.266-4.32-3.427-4.782-2.414-.664-4.859-.546-7.34-.441v-3.453h4.255c0-.703.039-1.207.039-1.91-3.34.023-7.336.023-10.942 0ZM11.262 11.836c0 1.105-.395 1.957-1.192 2.55-.715.544-1.652.813-2.812.813-2.64 0-3.961-1.219-3.961-3.656 0-.113.02-.219.058-.324a.557.557 0 0 1 .282-.07h1.082c.105 0 .203.023.293.07.027.078.05.168.066.27.094.671.29 1.156.582 1.46.328.336.828.504 1.508.504.555 0 1.008-.144 1.355-.437.368-.317.551-.739.551-1.27 0-1.125-.633-1.785-1.89-1.98a1.008 1.008 0 0 1-.352-.098c-.043-.086-.066-.523-.066-1.316 0-.102.027-.2.078-.29.414-.12.832-.242 1.246-.367.437-.195.66-.605.66-1.226 0-.942-.566-1.414-1.7-1.414-.523 0-.929.125-1.222.375-.156.136-.316.367-.484.691-.121.246-.242.371-.367.371H3.902c-.27 0-.406-.117-.406-.355 0-.907.363-1.621 1.09-2.145.656-.472 1.46-.707 2.414-.707 1.098 0 1.996.227 2.688.676.816.523 1.226 1.297 1.226 2.32 0 1.235-.625 2.074-1.875 2.52 1.484.61 2.223 1.625 2.223 3.035ZM87.738 128.164c0-1.105.395-1.957 1.192-2.55.715-.544 1.652-.813 2.812-.813 2.64 0 3.961 1.219 3.961 3.656 0 .113-.02.219-.058.324a.557.557 0 0 1-.282.07h-1.082a.624.624 0 0 1-.293-.07 1.511 1.511 0 0 1-.066-.27c-.094-.671-.29-1.156-.582-1.46-.328-.336-.828-.504-1.508-.504-.555 0-1.008.144-1.355.437-.368.317-.551.739-.551 1.27 0 1.125.633 1.785 1.89 1.98.157.02.274.055.352.098.043.086.066.523.066 1.316 0 .102-.027.2-.078.29-.414.12-.832.242-1.246.367-.437.195-.66.605-.66 1.226 0 .942.566 1.414 1.7 1.414.523 0 .929-.125 1.222-.375.156-.136.316-.367.484-.691.121-.246.242-.371.367-.371h1.075c.27 0 .406.117.406.355 0 .907-.363 1.621-1.09 2.145-.656.472-1.46.707-2.414.707-1.098 0-1.996-.227-2.688-.676-.816-.523-1.226-1.297-1.226-2.32 0-1.235.625-2.074 1.875-2.52-1.484-.61-2.223-1.625-2.223-3.035Zm0 0" style="stroke:none;fill-rule:nonzero;fill:#000;fill-opacity:1"/></svg>
